X: 1
T: Andrew's Dance - 8x32R 3C
C: Ian Pullman's Special
C: Peter Elmes
Z: arr. T. Traub 5-20-2002
M: C
L: 1/8
K: D
A2| "D"d2 FA BAFA| "D"f2 e2 d2 A2|"D"BAFA d2 F2|"A"G6 EF|\
  "Em"GAGF EFGE|"A7"e2 f2 e2 c2|"A7"ABcB "A"AceA|"D"f6 FG||
"D"A2 FA BAFA|"D"fAFA B2 A2|"D"DFAF "D7"DA^GA|"G"B6 GF|\
  "Em"E2 GA "A"cA^GA|"Em"e2 d2 "A"c2 A2|"Em"EFGA "A7"cABc|"D"d6 FG||
"D"A2 DF A2 FG|"D"Afed A2 F2|"D"DEFA d2 c2|"Em"G6 EF|\
  "A"GA,CE GE^DE|"A"CEGA e2 c2|"A7"ABAG FEDE|"D"F6 FG||
"D"A2 DF A2 FG|"D"Afed A2 F2|"D"DEFA "D7"d2 A2|"G"B6 EF|\
"A"GECE A,CEG|"A"c2 A2 G2 E2|"A7"CEGA cAfe |"D"d6|]
